tools/download-figma-icons/icons/solid/local-heat.svg

<svg width="24" height="24" viewBox="0 0 24 24" fill="none" xmlns="http://www.w3.org/2000/svg">
<path d="M4.59894 15.9227C4.32135 15.6977 3.92373 15.6977 3.64614 15.9227L0.277587 18.6827C0.105033 18.8252 0 19.0352 0 19.2602V23.2502C0 23.6627 0.337605 24.0002 0.750234 24.0002H7.50234C7.91497 24.0002 8.25258 23.6627 8.25258 23.2502V19.2602C8.25258 19.0352 8.15505 18.8252 7.97499 18.6827L4.59894 15.9227Z" fill="black"/>
<path d="M8.62773 8.25016H15.3798C15.7925 8.25016 16.1301 7.91266 16.1301 7.50016V3.51016C16.1301 3.28516 16.0325 3.07516 15.8525 2.93266L12.4764 0.172656C12.1988 -0.0523437 11.8012 -0.0523437 11.5236 0.172656L8.14758 2.93266C7.97503 3.07516 7.87 3.28516 7.87 3.51016V7.50016C7.87 7.91266 8.2076 8.25016 8.62023 8.25016H8.62773Z" fill="black"/>
<path d="M23.7299 18.6827L20.3539 15.9227C20.0763 15.6977 19.6787 15.6977 19.4011 15.9227L16.025 18.6827C15.8525 18.8252 15.7474 19.0352 15.7474 19.2602V23.2502C15.7474 23.6627 16.085 24.0002 16.4977 24.0002H23.2498C23.6624 24.0002 24 23.6627 24 23.2502V19.2602C24 19.0352 23.9025 18.8252 23.7224 18.6827H23.7299Z" fill="black"/>
<path d="M15.3798 15.1053L12.7539 13.5753V10.5078C12.7539 10.0953 12.4163 9.75781 12.0037 9.75781C11.5911 9.75781 11.2535 10.0953 11.2535 10.5078V13.5753L8.62015 15.1053C8.26004 15.3153 8.14 15.7728 8.35007 16.1328C8.49261 16.3728 8.74019 16.5078 9.00277 16.5078C9.13031 16.5078 9.25785 16.4778 9.37789 16.4028L12.0037 14.8728L14.622 16.4028C14.7421 16.4703 14.8696 16.5078 14.9971 16.5078C15.2522 16.5078 15.5073 16.3728 15.6423 16.1328C15.8524 15.7728 15.7324 15.3153 15.3723 15.1053H15.3798Z" fill="black"/>
</svg>

<svg width="24" height="24" viewBox="0 0 24 24" fill="none" xmlns="http://www.w3.org/2000/svg"><path d="M4.599 15.923a.757.757 0 0 0-.953 0l-3.368 2.76A.751.751 0 0 0 0 19.26v3.99c0 .413.338.75.75.75h6.752c.413 0 .75-.337.75-.75v-3.99a.728.728 0 0 0-.277-.577l-3.376-2.76ZM8.628 8.25h6.752c.412 0 .75-.337.75-.75V3.51a.728.728 0 0 0-.277-.577L12.476.173a.757.757 0 0 0-.952 0l-3.376 2.76a.751.751 0 0 0-.278.577V7.5c0 .413.338.75.75.75h.008ZM23.73 18.683l-3.376-2.76a.757.757 0 0 0-.953 0l-3.376 2.76a.752.752 0 0 0-.278.577v3.99c0 .413.338.75.75.75h6.753c.412 0 .75-.337.75-.75v-3.99a.728.728 0 0 0-.278-.577h.008Zm-8.35-3.578-2.626-1.53v-3.067a.752.752 0 0 0-.75-.75.752.752 0 0 0-.75.75v3.067l-2.634 1.53a.749.749 0 0 0-.27 1.028c.143.24.39.375.653.375.127 0 .255-.03.375-.105l2.626-1.53 2.618 1.53c.12.067.248.105.375.105.255 0 .51-.135.645-.375a.749.749 0 0 0-.27-1.028h.008Z" fill="currentColor"/></svg>
